X:1
T:Title
%%score { 1 | 2 }
L:1/8
Q:1/4=100
M:6/8
K:F
V:1 treble nm="Grand Piano"
V:2 bass 
V:1
 A2 A AGA | [Ac]3 .[FA]3 | [Fd]2 [Fd] [Fd][Ge][Fd] | [Fc]3 .[FA]3 | [Ec]2 [EG] [EG][FA][GB] | %5
w: C.~C.~Converse * * * *|||||
 [CFA]3 [CAc]2 [DGB] | [CFA]FG A2 G | F6 | AAA A[GB][Ac] | [Bd]3 .[Ac]3 | [Ec]3 [EG][FA][GB] | %11
w: ||||||
 A3 .F3 | AAA A[GB][Ac] | [Bd]3 .[Ac]3 | [Ec][EG][FA] [GB]2 [Ec] | F6 | AAA A[GB][Ac] | %17
w: ||||||
 [Bd]3 .[Ac]3 | [Ec]3 [EG][FA][GB] | A3 .F3 | AAA A[GB][Ac] | [Bd]3 .[Ac]3 | %22
w: |||||
 [Ec][EG][FA] [GB]2 [Ec] | F6 |] %24
w: ||
V:2
 [F,CF]2 [F,CF] [F,CF][F,CF][F,CF] | [F,F]3 .[F,C]3 | [B,,B,]2 [B,,B,] [B,,B,][B,,B,][B,,B,] | %3
 [F,A,]3 .[F,C]3 | [C,G,]2 [C,C] [C,C][C,C][C,C] | F,3 F,2 B,, | C,[C,A,C][C,B,C] [C,C]2 [C,B,C] | %7
 [F,A,C]6 | [F,CF][F,CF][F,CF] [F,CF][F,C][F,F] | [F,F]3 .[F,F]3 | [C,C]3 [C,C][C,C][C,C] | %11
 [F,CF]3 .[F,A,]3 | [F,CF][F,CF][F,CF] [F,CF][F,C][F,F] | [F,F]3 .[F,F]3 | %14
 [C,C][C,C][C,C] [C,C]2 [C,B,] | [F,A,]6 | [F,CF][F,CF][F,CF] [F,CF][F,C][F,F] | [F,F]3 .[F,F]3 | %18
 [C,C]3 [C,C][C,C][C,C] | [F,CF]3 .[F,A,]3 | [F,CF][F,CF][F,CF] [F,CF][F,C][F,F] | [F,F]3 .[F,F]3 | %22
 [C,C][C,C][C,C] [C,C]2 [C,B,] | [F,A,]6 |] %24

